X: 7846
T: Coming Of Spring, The
R: hornpipe
M: 4/4
K: Dmajor
(3ABc|:df (3edc dAFA|(3Bcd AF EDCE|DFAd fdef|(3gfe ce AB (3cBA|
df (3edc dAFA|(3Bcd AF EDCE|DFAd (3Bcd AG|(3FGF D2 D2 (3ABc:|
|:dcdf adfa|(3ba^g af =gfed|(3Bcd ef gfgf|(3efe (3dcB AB (3cBA|
dcdf adfa|bfaf gfed|(3Bcd AF GFEG|(3FGF D2 D2 (3ABc:|

